.local/share/icons/Gruvbox-Plus-Dark/actions/16/vmware-component-downloading.svg

<svg xmlns="http://www.w3.org/2000/svg" width="16" height="16" version="1.1">
 <defs>
  <style id="current-color-scheme" type="text/css">
   .ColorScheme-Text { color:#555555; } .ColorScheme-Highlight { color:#4285f4; } .ColorScheme-NeutralText { color:#ff9800; } .ColorScheme-PositiveText { color:#4caf50; } .ColorScheme-NegativeText { color:#f44336; }
  </style>
 </defs>
 <path style="fill:currentColor" class="ColorScheme-Text" d="M 6.203125,1 4.2792969,1.6210938 C 0.2136867,2.9333798 0.08235,2.9800563 0.03125,3.1347656 -0.00739,3.2516853 0.1540525,3.4436189 0.8515625,4.1152344 1.3288925,4.574842 1.71875,4.985193 1.71875,5.0273438 c 0,0.042146 -0.386475,0.438281 -0.859375,0.8808593 C 0.386485,6.3507803 0,6.7557348 0,6.8085938 0,6.8614568 0.05429375,6.9497028 0.12109375,7.0039062 0.18785375,7.0581072 1.5590288,7.5286767 3.1679688,8.0488281 4.7769087,8.5689795 6.1248094,8.9969268 6.1621094,9 6.1994194,9.00312 6.6282444,8.6279453 7.1152344,8.1660156 L 8,7.3242188 8.8945312,8.1738281 C 9.3865318,8.6405183 9.8318656,9.0069701 9.8847656,8.9882812 9.9376256,8.9695913 11.276205,8.5417267 12.859375,8.0371094 15.589975,7.1667648 16,7.0075506 16,6.8203125 16,6.7764244 15.613515,6.3708382 15.140625,5.9179688 14.667725,5.4650991 14.28125,5.0629761 14.28125,5.0234375 c 0,-0.039543 0.389857,-0.4485955 0.867188,-0.9082031 C 15.844758,3.444756 16.00725,3.2511705 15.96875,3.1347656 15.93023,3.0182254 15.491018,2.8486278 13.736328,2.2734375 12.534898,1.8796107 11.155575,1.4315708 10.671875,1.2792969 L 9.7929688,1.0039062 8.8964844,1.8632812 8,2.7207031 7.1015625,1.859375 Z m 1.8105469,2 2.2304691,0.7421875 c 1.226188,0.4075587 2.241181,0.751158 2.255859,0.765625 0.01472,0.014463 -0.968035,0.3524398 -2.183594,0.75 C 9.100847,5.6553725 8.0745856,5.9893902 8.0351562,6 7.9460426,6.023961 3.4594194,4.5457992 3.5,4.5058594 3.516204,4.4899354 4.5402554,4.1443772 5.7734375,3.7382812 Z M 8,8.7050781 7.8027344,8.890625 C 7.5511703,9.1292437 7.316254,9.3456488 7.1289062,9.5097656 c -0.093674,0.082058 -0.173593,0.1504285 -0.25,0.2109375 -0.038203,0.030254 -0.072915,0.05625 -0.1289062,0.09375 -0.027996,0.01875 -0.057715,0.041062 -0.1230469,0.074219 -0.032666,0.016578 -0.073706,0.036528 -0.1464843,0.060547 C 6.4440799,9.9612268 6.3984755,9.973435 6.3359375,9.984375 6.2738723,9.9952321 6.0835481,9.99613 6.0800781,9.9960938 6.0789125,9.9959976 5.9334905,9.97357 5.9140625,9.96875 5.8946335,9.963931 5.8826626,9.9602515 5.8710938,9.9570312 5.8479558,9.9505884 5.8277854,9.94498 5.8027344,9.9375 5.7526317,9.922542 5.6876729,9.9038207 5.6074219,9.8789062 5.4469196,9.829079 5.2237471,9.758428 4.9511719,9.671875 4.4060215,9.4987689 3.6672235,9.2605365 2.8613281,9 2.5337971,8.8941131 2.3032741,8.8137234 2.0039062,8.7148438 c 0.0052,1.8471702 0.037212,4.3326532 0.076172,4.3925782 0.039418,0.06062 1.3630086,0.533822 2.9394531,1.052734 h 0.00195 c 1.576504,0.518882 2.9804687,0.955078 2.9804687,0.955078 v -0.01367 c 0,0 1.4566415,-0.447606 2.9999999,-0.949218 C 11.164576,14.099489 11.308677,14.051574 11.464844,14 L 11.167969,13.554688 C 10.725127,12.890134 11.201413,12.000171 12,12 v -2 c 0.0028,-0.2887484 0.130263,-0.5621953 0.349609,-0.75 -0.437021,0.1397935 -0.92,0.2942038 -1.246093,0.3984375 -0.269359,0.086099 -0.491501,0.1566523 -0.648438,0.2070313 -0.156938,0.050376 -0.343607,0.1141022 -0.236328,0.076172 -8.27e-4,2.92e-4 -0.16714,0.045774 -0.234375,0.052734 C 9.917134,9.991325 9.860788,9.9895081 9.8125,9.9863281 9.7159111,9.9799697 9.6512824,9.9657049 9.5996094,9.9511719 9.4962625,9.9221049 9.4430935,9.8935007 9.3984375,9.8710938 9.3091255,9.8262801 9.2607545,9.7939096 9.2109375,9.7597656 9.1113032,9.6914776 9.0229611,9.6218144 8.9199219,9.5371094 8.7138435,9.3676996 8.467614,9.1475681 8.2070312,8.9003906 Z"/>
 <path style="fill:currentColor" class="ColorScheme-PositiveText" d="M 13 10 L 13 13 L 12 13 L 13 14.5 L 14 16 L 15 14.5 L 16 13 L 15 13 L 15 10 L 13 10 z"/>
</svg>

<svg width="16" height="16" version="1.1" xmlns="http://www.w3.org/2000/svg">
  <defs>
    <style id="current-color-scheme" type="text/css">.ColorScheme-Text { color:#ebdbb2; } .ColorScheme-Highlight { color:#458588; } .ColorScheme-PositiveText { color:#689d6a; }</style>
  </defs>
  <path class="ColorScheme-PositiveText" d="m13 10v3h-1l2 3 2-3h-1v-3h-2z" fill="currentColor"/>
  <path class="ColorScheme-Text" d="m6.203 1-1.924 0.6133c-4.066 1.312-4.197 1.361-4.248 1.516-0.03864 0.1169 0.1228 0.3089 0.8203 0.9805 0.4773 0.4596 0.8672 0.87 0.8672 0.9121 0 0.04215-0.3865 0.4383-0.8594 0.8809s-0.8594 0.8475-0.8594 0.9004c0 0.05286 0.05428 0.1411 0.1211 0.1953 0.06676 0.0542 1.438 0.5247 3.047 1.045 1.609 0.5202 2.994 0.9512 2.994 0.9512l1.838-1.676 1.885 1.664s0.6731-0.218 2.975-0.9512c2.731-0.8703 3.141-1.03 3.141-1.217 0-0.04389-0.3865-0.4495-0.8594-0.9023-0.4729-0.4529-0.8594-0.855-0.8594-0.8945 0-0.03954 0.3899-0.4486 0.8672-0.9082 0.6963-0.6705 0.8588-0.8641 0.8203-0.9805-0.03852-0.1165-0.4781-0.2861-2.232-0.8613-1.201-0.3938-2.58-0.8419-3.062-0.9941l-0.8789-0.2695-1.793 1.711zm1.811 1.992 4.486 1.508-4.5 1.492-4.5-1.494zm-0.01367 5.705s-0.579 0.5383-0.8711 0.8047c-0.4486 0.393-0.6099 0.4913-1.049 0.4863-0.1084-0.0089-0.2608-0.05138-0.4727-0.1172-0.8984-0.2789-1.842-0.582-3.604-1.164 0.0052 1.847 0.00205 4.245 0.07617 4.395 0.00897-0.001198 5.92 1.898 5.92 1.898l3.459-1.104c-1.051-1.184-0.009764-2.029 0.541-1.982v-1.953c0.01023-0.2767 0.1372-0.5362 0.3496-0.7168-0.7124 0.2219-1.422 0.4513-2.133 0.6797-0.01865 0.0066-0.1997 0.06829-0.4063 0.05469-0.3146-0.02072-0.5375-0.1572-0.8926-0.4492-0.1761-0.1447-0.918-0.832-0.918-0.832z" fill="currentColor"/>
</svg>
